!!!OTL-incipit: ZU STRASBURG AUF DER SCHANZ
!!!ARE: Europa, Mitteleuropa, Deutschland, Westfalen
!!!SCT: Z0005
!!!TXL: @@DE
!!!YEM: Copyright 1995, estate of Helmut Schaffrath.
**kern	**text
*ICvox	*
*M4/4	*
*met(c)	*
*k[f#]	*
*G:	*
!LO:TX:a:t=Weſtphäliſch.	!
{4d	Ʒu
=1	=1
4.g	Stras-
8g	-burg
4.d	auf
8d	der
=2	=2
2g	Schanʒ,
4r}	.
{8gL	da
8aJ	.
=3	=3
4.b/	ging
8b/	mein
8dd/L	Tran-
8ccJ	.
8aL	-ren
8f#J	.
=4	=4
2g	an;
4r}	.
{8gL	.
8aJ	das
=5	=5
8.b/	Alp-
16b/	-horn
8.b/	hört
16b/	ich
4b/	drü-
8.a	-ben
16b/	an-
=6	=6
4cc/	-ſtim-
4a	-men,
4r}	.
{8f#L	da
8gJ	.
=7	=7
4a	mußt
8.a	ich
16a	hin-
4a	-ü-
8.g	-ber
16b/	wohl
=8	=8
4b/	ſchwim-
4g	-men,
4r}	.
{8dd/L	das
8ccJ	.
=9	=9
4b/	ging
4a	.
4b/	nicht
4cc/	.
=10	=10
4dd/	an,
8dd/L	das
8ccJ	.
4b/	ging
4a	nicht
=11	=11
2g	an.
4r}	.
==	==
!!!AGN: Sagen - Lied, Romanze
!! Zweistimmigkeit, Terzparallelen
!!!ONB: ESAC (Essen Associative Code) Database: ZUCCAL
!!!AMT: simple quadruple
!!!AIN: vox
!!!EED: Helmut Schaffrath
!!!EEV: 1.0
!!@@COMMENT:"In original two voices"
!!@@END:
!!!GTL: I. Ernste Romanzen und Sagen.
!!!URL-scan: https://www.digitale-sammlungen.de/de/view/bsb11160571?page=23
!!!ENC: Anna Maria Matuszewska
!!!EEV: 2025/01/22
*-	*-
